src/icons/svg/tiktok.svg

<?xml version="1.0" encoding="UTF-8"?>
<svg xmlns="http://www.w3.org/2000/svg" width="40" height="40" viewBox="0 0 40 40" fill="none">
    <path d="M25.8811 5H20.9485V25.4347C20.9485 27.8696 19.0515 29.8696 16.6906 29.8696C14.3297 29.8696 12.4325 27.8696 12.4325 25.4347C12.4325 23.0435 14.2875 21.0869 16.5641 21V15.8696C11.5472 15.9565 7.5 20.1739 7.5 25.4347C7.5 30.7392 11.6315 35 16.7327 35C21.8339 35 25.9654 30.6957 25.9654 25.4347V14.9565C27.8204 16.3478 30.0969 17.1739 32.5 17.2174V12.087C28.7901 11.9565 25.8811 8.82608 25.8811 5Z" fill="#19191C"/>
</svg>

<svg xmlns="http://www.w3.org/2000/svg" width="40" height="40" fill="none"><path fill="#19191C" d="M25.881 5h-4.933v20.435c0 2.435-1.896 4.435-4.257 4.435s-4.258-2-4.258-4.435c0-2.391 1.854-4.348 4.131-4.435v-5.13c-5.017.087-9.064 4.304-9.064 9.565C7.5 30.739 11.632 35 16.733 35c5.1 0 9.232-4.304 9.232-9.565V14.957a11.24 11.24 0 0 0 6.535 2.26v-5.13c-3.71-.13-6.619-3.26-6.619-7.087"/></svg>
